src/img/exchange_icon.svg

<svg width="32" height="33" viewBox="0 0 32 33" fill="none" xmlns="http://www.w3.org/2000/svg">
<path d="M24.4853 7.654C29.1715 12.3403 29.1715 19.9383 24.4853 24.6245C19.799 29.3108 12.201 29.3108 7.51472 24.6245C2.82843 19.9382 2.82843 12.3403 7.51472 7.654C12.201 2.96771 19.799 2.96771 24.4853 7.654" stroke="url(#paint0_linear_211_4339)" stroke-linecap="round" stroke-linejoin="round"/>
<path d="M19.2333 15.1047L21.7164 12.6224L19.2333 10.1393M11.4297 12.625H21.7154" stroke="url(#paint1_linear_211_4339)" stroke-linecap="round" stroke-linejoin="round"/>
<path d="M12.7683 17.1739L10.2852 19.6562L12.7683 22.1393M20.5709 19.6536H10.2852" stroke="url(#paint2_linear_211_4339)" stroke-linecap="round" stroke-linejoin="round"/>
<defs>
<linearGradient id="paint0_linear_211_4339" x1="16" y1="4.13928" x2="16" y2="28.1393" gradientUnits="userSpaceOnUse">
<stop stop-color="#F6D4BA"/>
<stop offset="1" stop-color="#F6D4BA" stop-opacity="0.45"/>
</linearGradient>
<linearGradient id="paint1_linear_211_4339" x1="16.573" y1="10.1393" x2="16.573" y2="15.1047" gradientUnits="userSpaceOnUse">
<stop stop-color="#F6D4BA"/>
<stop offset="1" stop-color="#F6D4BA" stop-opacity="0.45"/>
</linearGradient>
<linearGradient id="paint2_linear_211_4339" x1="15.428" y1="17.1739" x2="15.428" y2="22.1393" gradientUnits="userSpaceOnUse">
<stop stop-color="#F6D4BA"/>
<stop offset="1" stop-color="#F6D4BA" stop-opacity="0.45"/>
</linearGradient>
</defs>
</svg>

<svg width="32" height="33" fill="none" xmlns="http://www.w3.org/2000/svg"><path d="M24.485 7.654c4.687 4.686 4.687 12.284 0 16.97-4.686 4.687-12.284 4.687-16.97 0-4.687-4.686-4.687-12.284 0-16.97 4.686-4.686 12.284-4.686 16.97 0" stroke="url(#paint0_linear_211_4339)" stroke-linecap="round" stroke-linejoin="round"/><path d="M19.233 15.105l2.483-2.483-2.483-2.483m-7.803 2.486h10.285" stroke="url(#paint1_linear_211_4339)" stroke-linecap="round" stroke-linejoin="round"/><path d="M12.768 17.174l-2.483 2.482 2.483 2.483m7.803-2.485H10.285" stroke="url(#paint2_linear_211_4339)" stroke-linecap="round" stroke-linejoin="round"/><defs><linearGradient id="paint0_linear_211_4339" x1="16" y1="4.139" x2="16" y2="28.139" gradientUnits="userSpaceOnUse"><stop stop-color="#F6D4BA"/><stop offset="1" stop-color="#F6D4BA" stop-opacity=".45"/></linearGradient><linearGradient id="paint1_linear_211_4339" x1="16.573" y1="10.139" x2="16.573" y2="15.105" gradientUnits="userSpaceOnUse"><stop stop-color="#F6D4BA"/><stop offset="1" stop-color="#F6D4BA" stop-opacity=".45"/></linearGradient><linearGradient id="paint2_linear_211_4339" x1="15.428" y1="17.174" x2="15.428" y2="22.139" gradientUnits="userSpaceOnUse"><stop stop-color="#F6D4BA"/><stop offset="1" stop-color="#F6D4BA" stop-opacity=".45"/></linearGradient></defs></svg>
